X:105
T:Pilgrim, The
M:6/8
L:1/8
B:Thompson's Compleat Collection of 200 Favourite Country Dances, vol. 3 (London, 1773)
Z:Transcribed and edited by Flynn Titford-Mock, 2007
Z:abc's:AK/Fiddler's Companion
K:G
G>AB B>AG | ABc cBA | ABG FED | GAB BAG | B^cd efg | fed ed^c | d3 D3 :|
|: de=f fed | cde cBA | Bcd efg | BAG AFD | GAB cde | def gdB | ecA dBG | DEF G3 :|

